X:554
T:Reel 554
M:4/4
K:Gmaj
L:1/8
d>G (3GFG B>G (3GFG |A>F (3GFG B2Bc||B>G (3GGG D>G (3GFG |AFDG =fdc2:||2BdGA  (3Bcd ef|gdcA BGG2|d>g (3gfg b>g (3gfg |dgf (3gfg f2ef|d>g (3gfg a>g (3gfg |dcBc BAG2|dgfg dgfg (3gfg |d>g (3gfg bgag|defg afge|dcAB cABGG2|
